entry/src/main/resources/base/media/redpack.svg

<svg xmlns="http://www.w3.org/2000/svg" viewBox="0 0 19.77 24.57">
	<path
		d="M22.46,5.9A13,13,0,0,1,15,11.44a3.28,3.28,0,0,0-1-1.37,2.21,2.21,0,0,0-2.8,0,3.2,3.2,0,0,0-1,1.37A12.84,12.84,0,0,1,2.69,5.9V2.18A2.8,2.8,0,0,1,3.2.87,2.21,2.21,0,0,1,4.4.27L20.7.22A2.74,2.74,0,0,1,22,.87a2.64,2.64,0,0,1,.44,1.26V5.9Z"
		transform="translate(-2.69 -0.22)" style="fill:#f45e4f;fill-rule:evenodd" />
	<path
		d="M22.46,5.77V23.06a2.67,2.67,0,0,1-.33,1.3,1.91,1.91,0,0,1-1.15.42H4.17A1.92,1.92,0,0,1,3,24.36a2.77,2.77,0,0,1-.31-1.3V5.77A14.07,14.07,0,0,0,10,10.18a3.82,3.82,0,0,0,1,1.76,2.35,2.35,0,0,0,1.61.66,2.31,2.31,0,0,0,1.6-.66,3.74,3.74,0,0,0,1-1.76,14.2,14.2,0,0,0,7.29-4.41Z"
		transform="translate(-2.69 -0.22)" style="fill:#e53c3c;fill-rule:evenodd" />
	<circle cx="9.89" cy="10.23" r="3.46" style="fill:#f0d35e" />
</svg>

<?xml version="1.0" encoding="utf-8"?>
<!-- Generator: Adobe Illustrator 25.4.1, SVG Export Plug-In . SVG Version: 6.00 Build 0)  -->
<svg version="1.1" id="图层_1" xmlns="http://www.w3.org/2000/svg" xmlns:xlink="http://www.w3.org/1999/xlink" x="0px" y="0px"
	 viewBox="0 0 25 25" style="enable-background:new 0 0 25 25;" xml:space="preserve">
<style type="text/css">
	.st0{fill-rule:evenodd;clip-rule:evenodd;fill:#CC443E;}
	.st1{fill-rule:evenodd;clip-rule:evenodd;fill:#F45E4F;}
	.st2{fill-rule:evenodd;clip-rule:evenodd;fill:#E53C3C;}
	.st3{fill:#F0D35E;}
</style>
<desc>Created with Pixso.</desc>
<image style="overflow:visible;" width="120" height="142" xlink:href="AF2B2DE3.jpg"  transform="matrix(0.1153 0 0 0.1153 -20.588 6.5484)">
</image>
<rect x="-16.8" y="-8" class="st0" width="7" height="6"/>
<g>
	<path class="st1" d="M22.5,5.9c-1.9,2.9-4.6,4.8-7.5,5.5c-0.2-0.6-0.6-1-1-1.4c-0.4-0.3-0.9-0.5-1.4-0.5c-0.5,0-1,0.2-1.4,0.5
		c-0.4,0.3-0.8,0.8-1,1.4c-2.9-0.7-5.5-2.7-7.5-5.5V2.2c0-0.4,0.3-1,0.5-1.3c0.2-0.3,0.9-0.6,1.2-0.6l16.3,0c0.3,0,1.1,0.4,1.3,0.7
		c0.2,0.3,0.4,0.9,0.4,1.3L22.5,5.9L22.5,5.9z"/>
	<path class="st2" d="M22.5,5.8v17.3c0,0.4-0.1,1-0.3,1.3c-0.2,0.3-0.9,0.4-1.2,0.4H4.2c-0.3,0-1-0.2-1.2-0.4
		c-0.2-0.3-0.3-0.9-0.3-1.3V5.8c2.1,2.3,4.6,3.8,7.3,4.4c0.2,0.7,0.5,1.3,1,1.8c0.5,0.4,1,0.7,1.6,0.7c0.6,0,1.1-0.2,1.6-0.7
		c0.5-0.4,0.8-1.1,1-1.8C17.9,9.6,20.4,8.1,22.5,5.8L22.5,5.8z"/>
	<circle id="椭圆_1" class="st3" cx="12.6" cy="10.4" r="3.5"/>
</g>
</svg>
